X: 26999
T: Miss Farr's
R: reel
M: 4/4
K: Amixolydian
~A2 eA cAec|Acec dBGB|~A2 eA cAec|d2 BG EFGE|
~A2 eA cAec|Acec dBGB|Aced cBcA|BEED EFGE:|
eaag edcd|effe BA G2|eaag edcA|BEED EFGE|
eaag edcd|effe BAGB|~A3 B =cBcd|egfa gedB:|

